contributed-vectors/google_go.svg

<svg xmlns="http://www.w3.org/2000/svg" xml:space="preserve" style="fill-rule:evenodd;clip-rule:evenodd;stroke-linejoin:round;stroke-miterlimit:2" viewBox="0 0 192 192"><path d="m96 96-73.57 73.57a9.969 9.969 0 0 1-2.93-7.07v-133c0-2.76 1.12-5.26 2.93-7.07L96 96Z" style="fill:#f9de81"/><path d="M22.43 22.43a9.969 9.969 0 0 1 7.07-2.93h133c2.76 0 5.26 1.12 7.07 2.93L96 96 22.43 22.43Z" style="fill:#ff837d"/><path d="M169.57 22.43a9.969 9.969 0 0 1 2.93 7.07v133c0 2.76-1.12 5.26-2.93 7.07L96 96l73.57-73.57Z" style="fill:#9abeff"/><path d="M169.57 169.57a9.969 9.969 0 0 1-7.07 2.93h-133c-2.76 0-5.26-1.12-7.07-2.93L96 96l73.57 73.57Z" style="fill:#98dc9a"/><circle cx="96" cy="96" r="36.414" style="fill:#9abeff"/><path d="M95.801 64.703c-16.93.228-30.605 14.376-30.605 31.77 0 17.536 13.899 31.772 31.019 31.772 13.36 0 25.921-8.297 28.417-20.812H96V87.159h29.877v-.001h20.326c.524 3.027.797 6.138.797 9.315 0 29.275-23.204 53.043-51.785 53.043-28.581 0-51.786-23.768-51.786-53.043 0-29.276 23.205-53.044 51.786-53.044.261 0 .523.002.785.006l.167.003c14.213.263 27.036 6.404 36.247 16.148l-14.347 14.347c-5.608-5.706-13.331-9.233-21.852-9.233l-.215.001-.199.002Z" style="fill:#fff"/></svg>

<?xml version="1.0" encoding="UTF-8" standalone="no"?>
<!DOCTYPE svg PUBLIC "-//W3C//DTD SVG 1.1//EN" "http://www.w3.org/Graphics/SVG/1.1/DTD/svg11.dtd">
<svg width="100%" height="100%" viewBox="0 0 192 192" version="1.1" xmlns="http://www.w3.org/2000/svg" xmlns:xlink="http://www.w3.org/1999/xlink" xml:space="preserve" xmlns:serif="http://www.serif.com/" style="fill-rule:evenodd;clip-rule:evenodd;stroke-linejoin:round;stroke-miterlimit:2;">
    <g id="Layer1">
        <g>
            <path d="M96,96L22.43,169.57C20.62,167.76 19.5,165.26 19.5,162.5L19.5,29.5C19.5,26.74 20.62,24.24 22.43,22.43L96,96Z" style="fill:rgb(249,222,129);"/>
            <path d="M22.43,22.43C24.24,20.62 26.74,19.5 29.5,19.5L162.5,19.5C165.26,19.5 167.76,20.62 169.57,22.43L96,96L22.43,22.43Z" style="fill:rgb(255,131,125);"/>
            <path d="M169.57,22.43C171.38,24.24 172.5,26.74 172.5,29.5L172.5,162.5C172.5,165.26 171.38,167.76 169.57,169.57L96,96L169.57,22.43Z" style="fill:rgb(154,190,255);"/>
            <path d="M169.57,169.57C167.76,171.38 165.26,172.5 162.5,172.5L29.5,172.5C26.74,172.5 24.24,171.38 22.43,169.57L96,96L169.57,169.57Z" style="fill:rgb(152,220,154);"/>
            <circle cx="96" cy="96" r="36.414" style="fill:rgb(154,190,255);"/>
            <path d="M95.801,64.703C78.871,64.931 65.196,79.079 65.196,96.473C65.196,114.009 79.095,128.245 96.215,128.245C109.575,128.245 122.136,119.948 124.632,107.433L96,107.433L96,87.159L125.877,87.159L125.877,87.158L146.203,87.158C146.727,90.185 147,93.296 147,96.473C147,125.748 123.796,149.516 95.215,149.516C66.634,149.516 43.429,125.748 43.429,96.473C43.429,67.197 66.634,43.429 95.215,43.429C95.476,43.429 95.738,43.431 96,43.435L96.167,43.438C110.38,43.701 123.203,49.842 132.414,59.586L118.067,73.933C112.459,68.227 104.736,64.7 96.215,64.7C96.143,64.7 96.071,64.701 96,64.701L95.801,64.703Z" style="fill:white;"/>
        </g>
    </g>
</svg>
